src/assets/icons/math-symbols,fancy,exclamation.svg

<svg width="48" height="48" viewBox="0 0 48 48" fill="none" xmlns="http://www.w3.org/2000/svg">
<path d="M27.1605 9.90909H20.8395L21.4077 30.2784H26.6065L27.1605 9.90909ZM24.0071 39.3693C25.8253 39.3693 27.402 37.8494 27.4162 35.9602C27.402 34.0994 25.8253 32.5795 24.0071 32.5795C22.1321 32.5795 20.5838 34.0994 20.598 35.9602C20.5838 37.8494 22.1321 39.3693 24.0071 39.3693Z" fill="black"/>
</svg>

<svg xmlns="http://www.w3.org/2000/svg" width="48" height="48" fill="none" viewBox="0 0 48 48">
  <path fill="#000" d="M27.16 9.91h-6.32l.568 20.368h5.198L27.16 9.91zm-3.153 29.46c1.818 0 3.395-1.52 3.41-3.41-.015-1.86-1.592-3.38-3.41-3.38-1.875 0-3.423 1.52-3.409 3.38-.014 1.89 1.534 3.41 3.41 3.41z"/>
</svg>
